X:1
T:Cooley's Reel
R:Reel
M:C|
K:G
ED|\
"Em"EBBA B2EB|{d}B2AB dBAG|"D"(3FED AD BDAD|(3FED FA BAFD|
"Em"EBBA B2EB|{d}B2AB defa|"D"{b}afef dBAF|"Bm"DE (3FED "Em"E2:|
|:gf|\
"Em"eB ~B2 efgf|eB ~B2 gedB|"D"(3ABA FA DAFA|(3ABA FE DEFf|
"Em"eB ~B2 efgf|eB ~B2 defa|"D"{b}afef dBAF|"Bm"DE (3FED "Em"E2|]
